assets/hans_lut.CUBE
#Created by: Adobe Photoshop Export Color Lookup Plugin
TITLE "hans_lut.png"
#LUT size
LUT_3D_SIZE 16
#data domain
DOMAIN_MIN 0.0 0.0 0.0
DOMAIN_MAX 1.0 1.0 1.0
#LUT data points
0.000000 0.000000 0.000000
0.045502 0.000000 0.000000
0.091522 0.000000 0.000000
0.138794 0.000000 0.000000
0.187775 0.000000 0.000000
0.239136 0.000000 0.000000
0.293365 0.000000 0.000000
0.351135 0.000000 0.000000
0.412903 0.000000 0.000000
0.478973 0.000000 0.000000
0.549530 0.000000 0.000000
0.625244 0.000000 0.000000
0.707367 0.000000 0.000000
0.797485 0.000000 0.000000
0.896149 0.000000 0.000000
1.000000 0.000000 0.000000
0.000000 0.033997 0.000000
0.045502 0.033997 0.000000
0.091522 0.033997 0.000000
0.138794 0.033997 0.000000
0.187775 0.033997 0.000000
0.239136 0.033997 0.000000
0.293365 0.033997 0.000000
0.351135 0.033997 0.000000
0.412903 0.033997 0.000000
0.478973 0.033997 0.000000
0.549530 0.033997 0.000000
0.625244 0.033997 0.000000
0.707367 0.033997 0.000000
0.797485 0.033997 0.000000
0.896149 0.033997 0.000000
1.000000 0.033997 0.000000
0.000000 0.069489 0.000000
0.045502 0.069489 0.000000
0.091522 0.069489 0.000000
0.138794 0.069489 0.000000
0.187775 0.069489 0.000000
0.239136 0.069489 0.000000
0.293365 0.069489 0.000000
0.351135 0.069489 0.000000
0.412903 0.069489 0.000000
0.478973 0.069489 0.000000
0.549530 0.069489 0.000000
0.625244 0.069489 0.000000
0.707367 0.069489 0.000000
0.797485 0.069489 0.000000
0.896149 0.069489 0.000000
1.000000 0.069489 0.000000
0.000000 0.107819 0.000000
0.045502 0.107819 0.000000
0.091522 0.107819 0.000000
0.138794 0.107819 0.000000
0.187775 0.107819 0.000000
0.239136 0.107819 0.000000
0.293365 0.107819 0.000000
0.351135 0.107819 0.000000
0.412903 0.107819 0.000000
0.478973 0.107819 0.000000
0.549530 0.107819 0.000000
0.625244 0.107819 0.000000
0.707367 0.107819 0.000000
0.797485 0.107819 0.000000
0.896149 0.107819 0.000000
1.000000 0.107819 0.000000
0.000000 0.150635 0.000000
0.045502 0.150635 0.000000
0.091522 0.150635 0.000000
0.138794 0.150635 0.000000
0.187775 0.150635 0.000000
0.239136 0.150635 0.000000
0.293365 0.150635 0.000000
0.351135 0.150635 0.000000
0.412903 0.150635 0.000000
0.478973 0.150635 0.000000
0.549530 0.150635 0.000000
0.625244 0.150635 0.000000
0.707367 0.150635 0.000000
0.797485 0.150635 0.000000
0.896149 0.150635 0.000000
1.000000 0.150635 0.000000
0.000000 0.200470 0.000000
0.045502 0.200470 0.000000
0.091522 0.200470 0.000000
0.138794 0.200470 0.000000
0.187775 0.200470 0.000000
0.239136 0.200470 0.000000
0.293365 0.200470 0.000000
0.351135 0.200470 0.000000
0.412903 0.200470 0.000000
0.478973 0.200470 0.000000
0.549530 0.200470 0.000000
0.625244 0.200470 0.000000
0.707367 0.200470 0.000000
0.797485 0.200470 0.000000
0.896149 0.200470 0.000000
1.000000 0.200470 0.000000
0.000000 0.259796 0.000000
0.045502 0.259796 0.000000
0.091522 0.259796 0.000000
0.138794 0.259796 0.000000
0.187775 0.259796 0.000000
0.239136 0.259796 0.000000
0.293365 0.259796 0.000000
0.351135 0.259796 0.000000
0.412903 0.259796 0.000000
0.478973 0.259796 0.000000
0.549530 0.259796 0.000000
0.625244 0.259796 0.000000
0.707367 0.259796 0.000000
0.797485 0.259796 0.000000
0.896149 0.259796 0.000000
1.000000 0.259796 0.000000
0.000000 0.331848 0.000000
0.045502 0.331848 0.000000
0.091522 0.331848 0.000000
0.138794 0.331848 0.000000
0.187775 0.331848 0.000000
0.239136 0.331848 0.000000
0.293365 0.331848 0.000000
0.351135 0.331848 0.000000
0.412903 0.331848 0.000000
0.478973 0.331848 0.000000
0.549530 0.331848 0.000000
0.625244 0.331848 0.000000
0.707367 0.331848 0.000000
0.797485 0.331848 0.000000
0.896149 0.331848 0.000000
1.000000 0.331848 0.000000
0.000000 0.420776 0.000000
0.045502 0.420776 0.000000
0.091522 0.420776 0.000000
0.138794 0.420776 0.000000
0.187775 0.420776 0.000000
0.239136 0.420776 0.000000
0.293365 0.420776 0.000000
0.351135 0.420776 0.000000
0.412903 0.420776 0.000000
0.478973 0.420776 0.000000
0.549530 0.420776 0.000000
0.625244 0.420776 0.000000
0.707367 0.420776 0.000000
0.797485 0.420776 0.000000
0.896149 0.420776 0.000000
1.000000 0.420776 0.000000
0.000000 0.529175 0.000000
0.045502 0.529175 0.000000
0.091522 0.529175 0.000000
0.138794 0.529175 0.000000
0.187775 0.529175 0.000000
0.239136 0.529175 0.000000
0.293365 0.529175 0.000000
0.351135 0.529175 0.000000
0.412903 0.529175 0.000000
0.478973 0.529175 0.000000
0.549530 0.529175 0.000000
0.625244 0.529175 0.000000
0.707367 0.529175 0.000000
0.797485 0.529175 0.000000
0.896149 0.529175 0.000000
1.000000 0.529175 0.000000
0.000000 0.658966 0.000000
0.045502 0.658966 0.000000
0.091522 0.658966 0.000000
0.138794 0.658966 0.000000
0.187775 0.658966 0.000000
0.239136 0.658966 0.000000
0.293365 0.658966 0.000000
0.351135 0.658966 0.000000
0.412903 0.658966 0.000000
0.478973 0.658966 0.000000
0.549530 0.658966 0.000000
0.625244 0.658966 0.000000
0.707367 0.658966 0.000000
0.797485 0.658966 0.000000
0.896149 0.658966 0.000000
1.000000 0.658966 0.000000
0.000000 0.775604 0.000000
0.045502 0.775604 0.000000
0.091522 0.775604 0.000000
0.138794 0.775604 0.000000
0.187775 0.775604 0.000000
0.239136 0.775604 0.000000
0.293365 0.775604 0.000000
0.351135 0.775604 0.000000
0.412903 0.775604 0.000000
0.478973 0.775604 0.000000
0.549530 0.775604 0.000000
0.625244 0.775604 0.000000
0.707367 0.775604 0.000000
0.797485 0.775604 0.000000
0.896149 0.775604 0.000000
1.000000 0.775604 0.000000
0.000000 0.832886 0.000000
0.045502 0.832886 0.000000
0.091522 0.832886 0.000000
0.138794 0.832886 0.000000
0.187775 0.832886 0.000000
0.239136 0.832886 0.000000
0.293365 0.832886 0.000000
0.351135 0.832886 0.000000
0.412903 0.832886 0.000000
0.478973 0.832886 0.000000
0.549530 0.832886 0.000000
0.625244 0.832886 0.000000
0.707367 0.832886 0.000000
0.797485 0.832886 0.000000
0.896149 0.832886 0.000000
1.000000 0.832886 0.000000
0.000000 0.861847 0.000000
0.045502 0.861847 0.000000
0.091522 0.861847 0.000000
0.138794 0.861847 0.000000
0.187775 0.861847 0.000000
0.239136 0.861847 0.000000
0.293365 0.861847 0.000000
0.351135 0.861847 0.000000
0.412903 0.861847 0.000000
0.478973 0.861847 0.000000
0.549530 0.861847 0.000000
0.625244 0.861847 0.000000
0.707367 0.861847 0.000000
0.797485 0.861847 0.000000
0.896149 0.861847 0.000000
1.000000 0.861847 0.000000
0.000000 0.917694 0.000000
0.045502 0.917694 0.000000
0.091522 0.917694 0.000000
0.138794 0.917694 0.000000
0.187775 0.917694 0.000000
0.239136 0.917694 0.000000
0.293365 0.917694 0.000000
0.351135 0.917694 0.000000
0.412903 0.917694 0.000000
0.478973 0.917694 0.000000
0.549530 0.917694 0.000000
0.625244 0.917694 0.000000
0.707367 0.917694 0.000000
0.797485 0.917694 0.000000
0.896149 0.917694 0.000000
1.000000 0.917694 0.000000
0.000000 1.000000 0.000000
0.045502 1.000000 0.000000
0.091522 1.000000 0.000000
0.138794 1.000000 0.000000
0.187775 1.000000 0.000000
0.239136 1.000000 0.000000
0.293365 1.000000 0.000000
0.351135 1.000000 0.000000
0.412903 1.000000 0.000000
0.478973 1.000000 0.000000
0.549530 1.000000 0.000000
0.625244 1.000000 0.000000
0.707367 1.000000 0.000000
0.797485 1.000000 0.000000
0.896149 1.000000 0.000000
1.000000 1.000000 0.000000
0.000000 0.000000 0.037170
0.045502 0.000000 0.037170
0.091522 0.000000 0.037170
0.138794 0.000000 0.037170
0.187775 0.000000 0.037170
0.239136 0.000000 0.037170
0.293365 0.000000 0.037170
0.351135 0.000000 0.037170
0.412903 0.000000 0.037170
0.478973 0.000000 0.037170
0.549530 0.000000 0.037170
0.625244 0.000000 0.037170
0.707367 0.000000 0.037170
0.797485 0.000000 0.037170
0.896149 0.000000 0.037170
1.000000 0.000000 0.037170
0.000000 0.033997 0.037170
0.045502 0.033997 0.037170
0.091522 0.033997 0.037170
0.138794 0.033997 0.037170
0.187775 0.033997 0.037170
0.239136 0.033997 0.037170
0.293365 0.033997 0.037170
0.351135 0.033997 0.037170
0.412903 0.033997 0.037170
0.478973 0.033997 0.037170
0.549530 0.033997 0.037170
0.625244 0.033997 0.037170
0.707367 0.033997 0.037170
0.797485 0.033997 0.037170
0.896149 0.033997 0.037170
1.000000 0.033997 0.037170
0.000000 0.069489 0.037170
0.045502 0.069489 0.037170
0.091522 0.069489 0.037170
0.138794 0.069489 0.037170
0.187775 0.069489 0.037170
0.239136 0.069489 0.037170
0.293365 0.069489 0.037170
0.351135 0.069489 0.037170
0.412903 0.069489 0.037170
0.478973 0.069489 0.037170
0.549530 0.069489 0.037170
0.625244 0.069489 0.037170
0.707367 0.069489 0.037170
0.797485 0.069489 0.037170
0.896149 0.069489 0.037170
1.000000 0.069489 0.037170
0.000000 0.107819 0.037170
0.045502 0.107819 0.037170
0.091522 0.107819 0.037170
0.138794 0.107819 0.037170
0.187775 0.107819 0.037170
0.239136 0.107819 0.037170
0.293365 0.107819 0.037170
0.351135 0.107819 0.037170
0.412903 0.107819 0.037170
0.478973 0.107819 0.037170
0.549530 0.107819 0.037170
0.625244 0.107819 0.037170
0.707367 0.107819 0.037170
0.797485 0.107819 0.037170
0.896149 0.107819 0.037170
1.000000 0.107819 0.037170
0.000000 0.150635 0.037170
0.045502 0.150635 0.037170
0.091522 0.150635 0.037170
0.138794 0.150635 0.037170
0.187775 0.150635 0.037170
0.239136 0.150635 0.037170
0.293365 0.150635 0.037170
0.351135 0.150635 0.037170
0.412903 0.150635 0.037170
0.478973 0.150635 0.037170
0.549530 0.150635 0.037170
0.625244 0.150635 0.037170
0.707367 0.150635 0.037170
0.797485 0.150635 0.037170
0.896149 0.150635 0.037170
1.000000 0.150635 0.037170
0.000000 0.200470 0.037170
0.045502 0.200470 0.037170
0.091522 0.200470 0.037170
0.138794 0.200470 0.037170
0.187775 0.200470 0.037170
0.239136 0.200470 0.037170
0.293365 0.200470 0.037170
0.351135 0.200470 0.037170
0.412903 0.200470 0.037170
0.478973 0.200470 0.037170
0.549530 0.200470 0.037170
0.625244 0.200470 0.037170
0.707367 0.200470 0.037170
0.797485 0.200470 0.037170
0.896149 0.200470 0.037170
1.000000 0.200470 0.037170
0.000000 0.259796 0.037170
0.045502 0.259796 0.037170
0.091522 0.259796 0.037170
0.138794 0.259796 0.037170
0.187775 0.259796 0.037170
0.239136 0.259796 0.037170
0.293365 0.259796 0.037170
0.351135 0.259796 0.037170
0.412903 0.259796 0.037170
0.478973 0.259796 0.037170
0.549530 0.259796 0.037170
0.625244 0.259796 0.037170
0.707367 0.259796 0.037170
0.797485 0.259796 0.037170
0.896149 0.259796 0.037170
1.000000 0.259796 0.037170
0.000000 0.331848 0.037170
0.045502 0.331848 0.037170
0.091522 0.331848 0.037170
0.138794 0.331848 0.037170
0.187775 0.331848 0.037170
0.239136 0.331848 0.037170
0.293365 0.331848 0.037170
0.351135 0.331848 0.037170
0.412903 0.331848 0.037170
0.478973 0.331848 0.037170
0.549530 0.331848 0.037170
0.625244 0.331848 0.037170
0.707367 0.331848 0.037170
0.797485 0.331848 0.037170
0.896149 0.331848 0.037170
1.000000 0.331848 0.037170
0.000000 0.420776 0.037170
0.045502 0.420776 0.037170
0.091522 0.420776 0.037170
0.138794 0.420776 0.037170
0.187775 0.420776 0.037170
0.239136 0.420776 0.037170
0.293365 0.420776 0.037170
0.351135 0.420776 0.037170
0.412903 0.420776 0.037170
0.478973 0.420776 0.037170
0.549530 0.420776 0.037170
0.625244 0.420776 0.037170
0.707367 0.420776 0.037170
0.797485 0.420776 0.037170
0.896149 0.420776 0.037170
1.000000 0.420776 0.037170
0.000000 0.529175 0.037170
0.045502 0.529175 0.037170
0.091522 0.529175 0.037170
0.138794 0.529175 0.037170
0.187775 0.529175 0.037170
0.239136 0.529175 0.037170
0.293365 0.529175 0.037170
0.351135 0.529175 0.037170
0.412903 0.529175 0.037170
0.478973 0.529175 0.037170
0.549530 0.529175 0.037170
0.625244 0.529175 0.037170
0.707367 0.529175 0.037170
0.797485 0.529175 0.037170
0.896149 0.529175 0.037170
1.000000 0.529175 0.037170
0.000000 0.658966 0.037170
0.045502 0.658966 0.037170
0.091522 0.658966 0.037170
0.138794 0.658966 0.037170
0.187775 0.658966 0.037170
0.239136 0.658966 0.037170
0.293365 0.658966 0.037170
0.351135 0.658966 0.037170
0.412903 0.658966 0.037170
0.478973 0.658966 0.037170
0.549530 0.658966 0.037170
0.625244 0.658966 0.037170
0.707367 0.658966 0.037170
0.797485 0.658966 0.037170
0.896149 0.658966 0.037170
1.000000 0.658966 0.037170
0.000000 0.775604 0.037170
0.045502 0.775604 0.037170
0.091522 0.775604 0.037170
0.138794 0.775604 0.037170
0.187775 0.775604 0.037170
0.239136 0.775604 0.037170
0.293365 0.775604 0.037170
0.351135 0.775604 0.037170
0.412903 0.775604 0.037170
0.478973 0.775604 0.037170
0.549530 0.775604 0.037170
0.625244 0.775604 0.037170
0.707367 0.775604 0.037170
0.797485 0.775604 0.037170
0.896149 0.775604 0.037170
1.000000 0.775604 0.037170
0.000000 0.832886 0.037170
0.045502 0.832886 0.037170
0.091522 0.832886 0.037170
0.138794 0.832886 0.037170
0.187775 0.832886 0.037170
0.239136 0.832886 0.037170
0.293365 0.832886 0.037170
0.351135 0.832886 0.037170
0.412903 0.832886 0.037170
0.478973 0.832886 0.037170
0.549530 0.832886 0.037170
0.625244 0.832886 0.037170
0.707367 0.832886 0.037170
0.797485 0.832886 0.037170
0.896149 0.832886 0.037170
1.000000 0.832886 0.037170
0.000000 0.861847 0.037170
0.045502 0.861847 0.037170
0.091522 0.861847 0.037170
0.138794 0.861847 0.037170
0.187775 0.861847 0.037170
0.239136 0.861847 0.037170
0.293365 0.861847 0.037170
0.351135 0.861847 0.037170
0.412903 0.861847 0.037170
0.478973 0.861847 0.037170
0.549530 0.861847 0.037170
0.625244 0.861847 0.037170
0.707367 0.861847 0.037170
0.797485 0.861847 0.037170
0.896149 0.861847 0.037170
1.000000 0.861847 0.037170
0.000000 0.917694 0.037170
0.045502 0.917694 0.037170
0.091522 0.917694 0.037170
0.138794 0.917694 0.037170
0.187775 0.917694 0.037170
0.239136 0.917694 0.037170
0.293365 0.917694 0.037170
0.351135 0.917694 0.037170
0.412903 0.917694 0.037170
0.478973 0.917694 0.037170
0.549530 0.917694 0.037170
0.625244 0.917694 0.037170
0.707367 0.917694 0.037170
0.797485 0.917694 0.037170
0.896149 0.917694 0.037170
1.000000 0.917694 0.037170
0.000000 1.000000 0.037170
0.045502 1.000000 0.037170
0.091522 1.000000 0.037170
0.138794 1.000000 0.037170
0.187775 1.000000 0.037170
0.239136 1.000000 0.037170
0.293365 1.000000 0.037170
0.351135 1.000000 0.037170
0.412903 1.000000 0.037170
0.478973 1.000000 0.037170
0.549530 1.000000 0.037170
0.625244 1.000000 0.037170
0.707367 1.000000 0.037170
0.797485 1.000000 0.037170
0.896149 1.000000 0.037170
1.000000 1.000000 0.037170
0.000000 0.000000 0.075073
0.045502 0.000000 0.075073
0.091522 0.000000 0.075073
0.138794 0.000000 0.075073
0.187775 0.000000 0.075073
0.239136 0.000000 0.075073
0.293365 0.000000 0.075073
0.351135 0.000000 0.075073
0.412903 0.000000 0.075073
0.478973 0.000000 0.075073
0.549530 0.000000 0.075073
0.625244 0.000000 0.075073
0.707367 0.000000 0.075073
0.797485 0.000000 0.075073
0.896149 0.000000 0.075073
1.000000 0.000000 0.075073
0.000000 0.033997 0.075073
0.045502 0.033997 0.075073
0.091522 0.033997 0.075073
0.138794 0.033997 0.075073
0.187775 0.033997 0.075073
0.239136 0.033997 0.075073
0.293365 0.033997 0.075073
0.351135 0.033997 0.075073
0.412903 0.033997 0.075073
0.478973 0.033997 0.075073
0.549530 0.033997 0.075073
0.625244 0.033997 0.075073
0.707367 0.033997 0.075073
0.797485 0.033997 0.075073
0.896149 0.033997 0.075073
1.000000 0.033997 0.075073
0.000000 0.069489 0.075073
0.045502 0.069489 0.075073
0.091522 0.069489 0.075073
0.138794 0.069489 0.075073
0.187775 0.069489 0.075073
0.239136 0.069489 0.075073
0.293365 0.069489 0.075073
0.351135 0.069489 0.075073
0.412903 0.069489 0.075073
0.478973 0.069489 0.075073
0.549530 0.069489 0.075073
0.625244 0.069489 0.075073
0.707367 0.069489 0.075073
0.797485 0.069489 0.075073
0.896149 0.069489 0.075073
1.000000 0.069489 0.075073
0.000000 0.107819 0.075073
0.045502 0.107819 0.075073
0.091522 0.107819 0.075073
0.138794 0.107819 0.075073
0.187775 0.107819 0.075073
0.239136 0.107819 0.075073
0.293365 0.107819 0.075073
0.351135 0.107819 0.075073
0.412903 0.107819 0.075073
0.478973 0.107819 0.075073
0.549530 0.107819 0.075073
0.625244 0.107819 0.075073
0.707367 0.107819 0.075073
0.797485 0.107819 0.075073
0.896149 0.107819 0.075073
1.000000 0.107819 0.075073
0.000000 0.150635 0.075073
0.045502 0.150635 0.075073
0.091522 0.150635 0.075073
0.138794 0.150635 0.075073
0.187775 0.150635 0.075073
0.239136 0.150635 0.075073
0.293365 0.150635 0.075073
0.351135 0.150635 0.075073
0.412903 0.150635 0.075073
0.478973 0.150635 0.075073
0.549530 0.150635 0.075073
0.625244 0.150635 0.075073
0.707367 0.150635 0.075073
0.797485 0.150635 0.075073
0.896149 0.150635 0.075073
1.000000 0.150635 0.075073
0.000000 0.200470 0.075073
0.045502 0.200470 0.075073
0.091522 0.200470 0.075073
0.138794 0.200470 0.075073
0.187775 0.200470 0.075073
0.239136 0.200470 0.075073
0.293365 0.200470 0.075073
0.351135 0.200470 0.075073
0.412903 0.200470 0.075073
0.478973 0.200470 0.075073
0.549530 0.200470 0.075073
0.625244 0.200470 0.075073
0.707367 0.200470 0.075073
0.797485 0.200470 0.075073
0.896149 0.200470 0.075073
1.000000 0.200470 0.075073
0.000000 0.259796 0.075073
0.045502 0.259796 0.075073
0.091522 0.259796 0.075073
0.138794 0.259796 0.075073
0.187775 0.259796 0.075073
0.239136 0.259796 0.075073
0.293365 0.259796 0.075073
0.351135 0.259796 0.075073
0.412903 0.259796 0.075073
0.478973 0.259796 0.075073
0.549530 0.259796 0.075073
0.625244 0.259796 0.075073
0.707367 0.259796 0.075073
0.797485 0.259796 0.075073
0.896149 0.259796 0.075073
1.000000 0.259796 0.075073
0.000000 0.331848 0.075073
0.045502 0.331848 0.075073
0.091522 0.331848 0.075073
0.138794 0.331848 0.075073
0.187775 0.331848 0.075073
0.239136 0.331848 0.075073
0.293365 0.331848 0.075073
0.351135 0.331848 0.075073
0.412903 0.331848 0.075073
0.478973 0.331848 0.075073
0.549530 0.331848 0.075073
0.625244 0.331848 0.075073
0.707367 0.331848 0.075073
0.797485 0.331848 0.075073
0.896149 0.331848 0.075073
1.000000 0.331848 0.075073
0.000000 0.420776 0.075073
0.045502 0.420776 0.075073
0.091522 0.420776 0.075073
0.138794 0.420776 0.075073
0.187775 0.420776 0.075073
0.239136 0.420776 0.075073
0.293365 0.420776 0.075073
0.351135 0.420776 0.075073
0.412903 0.420776 0.075073
0.478973 0.420776 0.075073
0.549530 0.420776 0.075073
0.625244 0.420776 0.075073
0.707367 0.420776 0.075073
0.797485 0.420776 0.075073
0.896149 0.420776 0.075073
1.000000 0.420776 0.075073
0.000000 0.529175 0.075073
0.045502 0.529175 0.075073
0.091522 0.529175 0.075073
0.138794 0.529175 0.075073
0.187775 0.529175 0.075073
0.239136 0.529175 0.075073
0.293365 0.529175 0.075073
0.351135 0.529175 0.075073
0.412903 0.529175 0.075073
0.478973 0.529175 0.075073
0.549530 0.529175 0.075073
0.625244 0.529175 0.075073
0.707367 0.529175 0.075073
0.797485 0.529175 0.075073
0.896149 0.529175 0.075073
1.000000 0.529175 0.075073
0.000000 0.658966 0.075073
0.045502 0.658966 0.075073
0.091522 0.658966 0.075073
0.138794 0.658966 0.075073
0.187775 0.658966 0.075073
0.239136 0.658966 0.075073
0.293365 0.658966 0.075073
0.351135 0.658966 0.075073
0.412903 0.658966 0.075073
0.478973 0.658966 0.075073
0.549530 0.658966 0.075073
0.625244 0.658966 0.075073
0.707367 0.658966 0.075073
0.797485 0.658966 0.075073
0.896149 0.658966 0.075073
1.000000 0.658966 0.075073
0.000000 0.775604 0.075073
0.045502 0.775604 0.075073
0.091522 0.775604 0.075073
0.138794 0.775604 0.075073
0.187775 0.775604 0.075073
0.239136 0.775604 0.075073
0.293365 0.775604 0.075073
0.351135 0.775604 0.075073
0.412903 0.775604 0.075073
0.478973 0.775604 0.075073
0.549530 0.775604 0.075073
0.625244 0.775604 0.075073
0.707367 0.775604 0.075073
0.797485 0.775604 0.075073
0.896149 0.775604 0.075073
1.000000 0.775604 0.075073
0.000000 0.832886 0.075073
0.045502 0.832886 0.075073
0.091522 0.832886 0.075073
0.138794 0.832886 0.075073
0.187775 0.832886 0.075073
0.239136 0.832886 0.075073
0.293365 0.832886 0.075073
0.351135 0.832886 0.075073
0.412903 0.832886 0.075073
0.478973 0.832886 0.075073
0.549530 0.832886 0.075073
0.625244 0.832886 0.075073
0.707367 0.832886 0.075073
0.797485 0.832886 0.075073
0.896149 0.832886 0.075073
1.000000 0.832886 0.075073
0.000000 0.861847 0.075073
0.045502 0.861847 0.075073
0.091522 0.861847 0.075073
0.138794 0.861847 0.075073
0.187775 0.861847 0.075073
0.239136 0.861847 0.075073
0.293365 0.861847 0.075073
0.351135 0.861847 0.075073
0.412903 0.861847 0.075073
0.478973 0.861847 0.075073
0.549530 0.861847 0.075073
0.625244 0.861847 0.075073
0.707367 0.861847 0.075073
0.797485 0.861847 0.075073
0.896149 0.861847 0.075073
1.000000 0.861847 0.075073
0.000000 0.917694 0.075073
0.045502 0.917694 0.075073
0.091522 0.917694 0.075073
0.138794 0.917694 0.075073
0.187775 0.917694 0.075073
0.239136 0.917694 0.075073
0.293365 0.917694 0.075073
0.351135 0.917694 0.075073
0.412903 0.917694 0.075073
0.478973 0.917694 0.075073
0.549530 0.917694 0.075073
0.625244 0.917694 0.075073
0.707367 0.917694 0.075073
0.797485 0.917694 0.075073
0.896149 0.917694 0.075073
1.000000 0.917694 0.075073
0.000000 1.000000 0.075073
0.045502 1.000000 0.075073
0.091522 1.000000 0.075073
0.138794 1.000000 0.075073
0.187775 1.000000 0.075073
0.239136 1.000000 0.075073
0.293365 1.000000 0.075073
0.351135 1.000000 0.075073
0.412903 1.000000 0.075073
0.478973 1.000000 0.075073
0.549530 1.000000 0.075073
0.625244 1.000000 0.075073
0.707367 1.000000 0.075073
0.797485 1.000000 0.075073
0.896149 1.000000 0.075073
1.000000 1.000000 0.075073
0.000000 0.000000 0.114471
0.045502 0.000000 0.114471
0.091522 0.000000 0.114471
0.138794 0.000000 0.114471
0.187775 0.000000 0.114471
0.239136 0.000000 0.114471
0.293365 0.000000 0.114471
0.351135 0.000000 0.114471
0.412903 0.000000 0.114471
0.478973 0.000000 0.114471
0.549530 0.000000 0.114471
0.625244 0.000000 0.114471
0.707367 0.000000 0.114471
0.797485 0.000000 0.114471
0.896149 0.000000 0.114471
1.000000 0.000000 0.114471
0.000000 0.033997 0.114471
0.045502 0.033997 0.114471
0.091522 0.033997 0.114471
0.138794 0.033997 0.114471
0.187775 0.033997 0.114471
0.239136 0.033997 0.114471
0.293365 0.033997 0.114471
0.351135 0.033997 0.114471
0.412903 0.033997 0.114471
0.478973 0.033997 0.114471
0.549530 0.033997 0.114471
0.625244 0.033997 0.114471
0.707367 0.033997 0.114471
0.797485 0.033997 0.114471
0.896149 0.033997 0.114471
1.000000 0.033997 0.114471
0.000000 0.069489 0.114471
0.045502 0.069489 0.114471
0.091522 0.069489 0.114471
0.138794 0.069489 0.114471
0.187775 0.069489 0.114471
0.239136 0.069489 0.114471
0.293365 0.069489 0.114471
0.351135 0.069489 0.114471
0.412903 0.069489 0.114471
0.478973 0.069489 0.114471
0.549530 0.069489 0.114471
0.625244 0.069489 0.114471
0.707367 0.069489 0.114471
0.797485 0.069489 0.114471
0.896149 0.069489 0.114471
1.000000 0.069489 0.114471
0.000000 0.107819 0.114471
0.045502 0.107819 0.114471
0.091522 0.107819 0.114471
0.138794 0.107819 0.114471
0.187775 0.107819 0.114471
0.239136 0.107819 0.114471
0.293365 0.107819 0.114471
0.351135 0.107819 0.114471
0.412903 0.107819 0.114471
0.478973 0.107819 0.114471
0.549530 0.107819 0.114471
0.625244 0.107819 0.114471
0.707367 0.107819 0.114471
0.797485 0.107819 0.114471
0.896149 0.107819 0.114471
1.000000 0.107819 0.114471
0.000000 0.150635 0.114471
0.045502 0.150635 0.114471
0.091522 0.150635 0.114471
0.138794 0.150635 0.114471
0.187775 0.150635 0.114471
0.239136 0.150635 0.114471
0.293365 0.150635 0.114471
0.351135 0.150635 0.114471
0.412903 0.150635 0.114471
0.478973 0.150635 0.114471
0.549530 0.150635 0.114471
0.625244 0.150635 0.114471
0.707367 0.150635 0.114471
0.797485 0.150635 0.114471
0.896149 0.150635 0.114471
1.000000 0.150635 0.114471
0.000000 0.200470 0.114471
0.045502 0.200470 0.114471
0.091522 0.200470 0.114471
0.138794 0.200470 0.114471
0.187775 0.200470 0.114471
0.239136 0.200470 0.114471
0.293365 0.200470 0.114471
0.351135 0.200470 0.114471
0.412903 0.200470 0.114471
0.478973 0.200470 0.114471
0.549530 0.200470 0.114471
0.625244 0.200470 0.114471
0.707367 0.200470 0.114471
0.797485 0.200470 0.114471
0.896149 0.200470 0.114471
1.000000 0.200470 0.114471
0.000000 0.259796 0.114471
0.045502 0.259796 0.114471
0.091522 0.259796 0.114471
0.138794 0.259796 0.114471
0.187775 0.259796 0.114471
0.239136 0.259796 0.114471
0.293365 0.259796 0.114471
0.351135 0.259796 0.114471
0.412903 0.259796 0.114471
0.478973 0.259796 0.114471
0.549530 0.259796 0.114471
0.625244 0.259796 0.114471
0.707367 0.259796 0.114471
0.797485 0.259796 0.114471
0.896149 0.259796 0.114471
1.000000 0.259796 0.114471
0.000000 0.331848 0.114471
0.045502 0.331848 0.114471
