assets/hans_lut.CUBE
#Created by: Adobe Photoshop Export Color Lookup Plugin
TITLE "hans_lut.png"
#LUT size
LUT_3D_SIZE 6
#data domain
DOMAIN_MIN 0.0 0.0 0.0
DOMAIN_MAX 1.0 1.0 1.0
#LUT data points
0.000000 0.000000 0.000000
0.138794 0.000000 0.000000
0.293365 0.000000 0.000000
0.478973 0.000000 0.000000
0.707367 0.000000 0.000000
1.000000 0.000000 0.000000
0.000000 0.107819 0.000000
0.138794 0.107819 0.000000
0.293365 0.107819 0.000000
0.478973 0.107819 0.000000
0.707367 0.107819 0.000000
1.000000 0.107819 0.000000
0.000000 0.259796 0.000000
0.138794 0.259796 0.000000
0.293365 0.259796 0.000000
0.478973 0.259796 0.000000
0.707367 0.259796 0.000000
1.000000 0.259796 0.000000
0.000000 0.529175 0.000000
0.138794 0.529175 0.000000
0.293365 0.529175 0.000000
0.478973 0.529175 0.000000
0.707367 0.529175 0.000000
1.000000 0.529175 0.000000
0.000000 0.832886 0.000000
0.138794 0.832886 0.000000
0.293365 0.832886 0.000000
0.478973 0.832886 0.000000
0.707367 0.832886 0.000000
1.000000 0.832886 0.000000
0.000000 1.000000 0.000000
0.138794 1.000000 0.000000
0.293365 1.000000 0.000000
0.478973 1.000000 0.000000
0.707367 1.000000 0.000000
1.000000 1.000000 0.000000
0.000000 0.000000 0.114471
0.138794 0.000000 0.114471
0.293365 0.000000 0.114471
0.478973 0.000000 0.114471
0.707367 0.000000 0.114471
1.000000 0.000000 0.114471
0.000000 0.107819 0.114471
0.138794 0.107819 0.114471
0.293365 0.107819 0.114471
0.478973 0.107819 0.114471
0.707367 0.107819 0.114471
1.000000 0.107819 0.114471
0.000000 0.259796 0.114471
0.138794 0.259796 0.114471
0.293365 0.259796 0.114471
0.478973 0.259796 0.114471
0.707367 0.259796 0.114471
1.000000 0.259796 0.114471
0.000000 0.529175 0.114471
0.138794 0.529175 0.114471
0.293365 0.529175 0.114471
0.478973 0.529175 0.114471
0.707367 0.529175 0.114471
1.000000 0.529175 0.114471
0.000000 0.832886 0.114471
0.138794 0.832886 0.114471
0.293365 0.832886 0.114471
0.478973 0.832886 0.114471
0.707367 0.832886 0.114471
1.000000 0.832886 0.114471
0.000000 1.000000 0.114471
0.138794 1.000000 0.114471
0.293365 1.000000 0.114471
0.478973 1.000000 0.114471
0.707367 1.000000 0.114471
1.000000 1.000000 0.114471
0.000000 0.000000 0.249390
0.138794 0.000000 0.249390
0.293365 0.000000 0.249359
0.478973 0.000000 0.249359
0.707367 0.000000 0.249359
1.000000 0.000000 0.249390
0.000000 0.107819 0.249359
0.138794 0.107819 0.249359
0.293365 0.107819 0.249359
0.478973 0.107819 0.249359
0.707367 0.107819 0.249359
1.000000 0.107819 0.249359
0.000000 0.259796 0.249390
0.138794 0.259796 0.249390
0.293365 0.259796 0.249359
0.478973 0.259796 0.249359
0.707367 0.259796 0.249359
1.000000 0.259796 0.249390
0.000000 0.529175 0.249359
0.138794 0.529175 0.249390
0.293365 0.529175 0.249390
0.478973 0.529175 0.249390
0.707367 0.529175 0.249390
1.000000 0.529175 0.249359
0.000000 0.832886 0.249390
0.138794 0.832886 0.249390
0.293365 0.832886 0.249390
0.478973 0.832886 0.249390
0.707367 0.832886 0.249390
1.000000 0.832886 0.249390
0.000000 1.000000 0.249390
0.138794 1.000000 0.249390
0.293365 1.000000 0.249359
0.478973 1.000000 0.249359
0.707367 1.000000 0.249359
1.000000 1.000000 0.249390
0.000000 0.000000 0.428955
0.138794 0.000000 0.428955
0.293365 0.000000 0.428955
0.478973 0.000000 0.428955
0.707367 0.000000 0.428955
1.000000 0.000000 0.428955
0.000000 0.107819 0.428955
0.138794 0.107819 0.428955
0.293365 0.107819 0.428955
0.478973 0.107819 0.428955
0.707367 0.107819 0.428955
1.000000 0.107819 0.428955
0.000000 0.259796 0.428955
0.138794 0.259796 0.428955
0.293365 0.259796 0.428955
0.478973 0.259796 0.428955
0.707367 0.259796 0.428955
1.000000 0.259796 0.428955
0.000000 0.529175 0.428955
0.138794 0.529175 0.428955
0.293365 0.529175 0.428955
0.478973 0.529175 0.428955
0.707367 0.529175 0.428955
1.000000 0.529175 0.428955
0.000000 0.832886 0.428955
0.138794 0.832886 0.428955
0.293365 0.832886 0.428955
0.478973 0.832886 0.428955
0.707367 0.832886 0.428955
1.000000 0.832886 0.428955
0.000000 1.000000 0.428955
0.138794 1.000000 0.428955
0.293365 1.000000 0.428955
0.478973 1.000000 0.428955
0.707367 1.000000 0.428955
1.000000 1.000000 0.428955
0.000000 0.000000 0.676697
0.138794 0.000000 0.676697
0.293365 0.000000 0.676697
0.478973 0.000000 0.676697
0.707367 0.000000 0.676697
1.000000 0.000000 0.676697
0.000000 0.107819 0.676697
0.138794 0.107819 0.676697
0.293365 0.107819 0.676697
0.478973 0.107819 0.676697
0.707367 0.107819 0.676697
1.000000 0.107819 0.676697
0.000000 0.259796 0.676697
0.138794 0.259796 0.676697
0.293365 0.259796 0.676697
0.478973 0.259796 0.676697
0.707367 0.259796 0.676697
1.000000 0.259796 0.676697
0.000000 0.529175 0.676697
0.138794 0.529175 0.676697
0.293365 0.529175 0.676697
0.478973 0.529175 0.676697
0.707367 0.529175 0.676697
1.000000 0.529175 0.676697
0.000000 0.832886 0.676697
0.138794 0.832886 0.676697
0.293365 0.832886 0.676697
0.478973 0.832886 0.676697
0.707367 0.832886 0.676697
1.000000 0.832886 0.676697
0.000000 1.000000 0.676697
0.138794 1.000000 0.676697
0.293365 1.000000 0.676697
0.478973 1.000000 0.676697
0.707367 1.000000 0.676697
1.000000 1.000000 0.676697
0.000000 0.000000 1.000000
0.138794 0.000000 1.000000
0.293365 0.000000 1.000000
0.478973 0.000000 1.000000
0.707367 0.000000 1.000000
1.000000 0.000000 1.000000
0.000000 0.107819 1.000000
0.138794 0.107819 1.000000
0.293365 0.107819 1.000000
0.478973 0.107819 1.000000
0.707367 0.107819 1.000000
1.000000 0.107819 1.000000
0.000000 0.259796 1.000000
0.138794 0.259796 1.000000
0.293365 0.259796 1.000000
0.478973 0.259796 1.000000
0.707367 0.259796 1.000000
1.000000 0.259796 1.000000
0.000000 0.529175 1.000000
0.138794 0.529175 1.000000
0.293365 0.529175 1.000000
0.478973 0.529175 1.000000
0.707367 0.529175 1.000000
1.000000 0.529175 1.000000
0.000000 0.832886 1.000000
0.138794 0.832886 1.000000
0.293365 0.832886 1.000000
0.478973 0.832886 1.000000
0.707367 0.832886 1.000000
1.000000 0.832886 1.000000
0.000000 1.000000 1.000000
0.138794 1.000000 1.000000
0.293365 1.000000 1.000000
0.478973 1.000000 1.000000
0.707367 1.000000 1.000000
1.000000 1.000000 1.000000
